X:1
T:Title
%%score { ( 1 4 6 ) | ( 2 3 5 ) }
L:1/8
M:2/4
K:F
V:1 treble nm="Grand Piano"
V:4 treble 
V:6 treble 
V:2 bass 
V:3 bass 
V:5 bass 
V:1
 z4[Q:1/4=100] | [FA]>G F>E | F2 C>F | F>F G>F | [CE]4 | [GB]>A G>^F | G2 E>D | C>c [Ac]>[GB] | %8
 [FA]4 | [FA]>A B>c | d->[Ad-] [Gd]>B | [EG]>G A>B | c->[Gc-] c>A | E>F G>A | [DGB]2 G>c | %15
 c>B A>B | c4[K:bass][K:treble] | [FA]>A B>c | d4 | [EG]>G A>B | c4 | E>F G>A | [DGB]2 G>F | %23
 E>E D>E | F4[K:bass] |] %25
V:2
 z2 z z/ C/ | z z/ E/ [C,F,A,C]2 | [C,C]2 [F,A,]2 | C2- [F,A,C]2 | C,2 z z/ C/ | %5
 z z/ F/ [E,G,B,E]2 | [E,E]2 [G,B,]2 | z z/ A/ [E,G,B,]2 | [C,F,A,]2 z z/ A/ | %9
 z z/[K:treble] F/ G>A | [F,B,]3- [F,B,]/[F,B,F]/ | z z/ E/[K:treble] F>G | %12
 [F,A,]3- [F,A,]/[F,A,]/ | z2 E2 | z2 z z/ E/ | C,2 [G,B,C]2 | E4 | z z/[K:treble] F/ G>A | %18
 [F,B,]3- [F,B,]/[F,B,F]/ | z z/ E/[K:treble] F>G | [F,A,]3- [F,A,]/[F,A,]/ | G,>[A,D] E->[CE] | %22
 z2 [E,G,B,]2 | [C,C]2 [E,G,B,]2 | C4 |] %25
V:3
 x4 | F,,2 z2 | x4 | C,2 z2 | z2 E,2 | C,2 z2 | x4 | C,2 z2 | z2 F,,2 | [C,F,A,]4[K:treble] | D,4 | %11
 [C,E,G,B,]4[K:treble] | C,4 | G,>[A,D] B,>C | z2 [E,G,B,]2 | x4 | [G,B,C]2 z2 | %17
 [C,F,A,]4[K:treble] | D,4 | [C,E,G,B,]4[K:treble] | C,4 | z2 B,2 | C,4 | x4 | [F,A,]2 z2 |] %25
V:4
 x4 | x4 | x4 | x4 | z2 [G,B,]2 | x4 | x4 | x4 | x4 | x4 | B2 z2 | x4 | A2 F2 | x4 | x4 | E4 | %16
 z2[K:bass] z z/[K:treble] A/ | x4 | B>A G>B | x4 | A>G z z/ A/ | x4 | x4 | x4 | z2[K:bass] F,,2 |] %25
V:5
 x4 | x4 | x4 | x4 | x4 | x4 | x4 | x4 | x4 | x3/2[K:treble] x5/2 | x4 | x2[K:treble] x2 | x4 | %13
 C,4 | C,4 | x4 | x4 | x3/2[K:treble] x5/2 | x4 | x2[K:treble] x2 | x4 | C,4 | x4 | x4 | x4 |] %25
V:6
 x4 | x4 | x4 | x4 | x4 | x4 | x4 | x4 | x4 | x4 | x4 | x4 | x4 | x4 | x4 | x4 | %16
 z2[K:bass] C,2[K:treble] | x4 | x4 | x4 | z2 F2 | x4 | x4 | x4 | x2[K:bass] x2 |] %25

